rospo-dark/16x16/actions/kt-queue-manager.svg

<svg height="16" viewBox="0 0 16 16" width="16" xmlns="http://www.w3.org/2000/svg"><path d="m2.5 2c-.82235 0-1.5.67765-1.5 1.5s.67765 1.5 1.5 1.5 1.5-.67765 1.5-1.5-.67765-1.5-1.5-1.5zm7.5 0-5.0625 7h3.0625v4h4v-4h3.1875zm-7.5 4c-.82235 0-1.5.67765-1.5 1.5s.67765 1.5 1.5 1.5 1.5-.67765 1.5-1.5-.67765-1.5-1.5-1.5zm0 4c-.82235 0-1.5.67765-1.5 1.5s.67765 1.5 1.5 1.5 1.5-.67765 1.5-1.5-.67765-1.5-1.5-1.5z" fill="#d3dae3"/></svg>

<?xml version="1.0" encoding="UTF-8" standalone="no"?>
<svg xmlns="http://www.w3.org/2000/svg" width="22" height="22" viewBox="0 0 22 22">
 <defs>
  <style type="text/css" id="current-color-scheme">
   .ColorScheme-Text { color:#d3dae3; } .ColorScheme-Highlight { color:#5294e2; }
  </style>
 </defs>
 <path style="fill:currentColor;opacity:1" class="ColorScheme-Text" transform="translate(3 3)" d="M 2.5 2 C 1.67765 2 1 2.67765 1 3.5 C 1 4.32235 1.67765 5 2.5 5 C 3.32235 5 4 4.32235 4 3.5 C 4 2.67765 3.32235 2 2.5 2 z M 10 2 L 4.9375 9 L 8 9 L 8 13 L 12 13 L 12 9 L 15.1875 9 L 10 2 z M 2.5 6 C 1.67765 6 1 6.67765 1 7.5 C 1 8.32235 1.67765 9 2.5 9 C 3.32235 9 4 8.32235 4 7.5 C 4 6.67765 3.32235 6 2.5 6 z M 2.5 10 C 1.67765 10 1 10.67765 1 11.5 C 1 12.32235 1.67765 13 2.5 13 C 3.32235 13 4 12.32235 4 11.5 C 4 10.67765 3.32235 10 2.5 10 z"/>
</svg>
